X: 1808
T: Pine Mt Lancers Fig 4
B: australian traditional tunes wiki
M:2/4
L:1/8
R: Polka
Q: 1/4=100
K:D
V:1 
%transposed from C
A/A/|"D"AF DF |AB AA/A/|AF GF |"Em"G3B/B/|BG EG |Bc BB/B/|Bd cB |"A7"A3A/A/|
"D"AF DF |AB AA/A/|"Em"BG EB | B3B/B/|BG EB  |"D"AF DF|"A7"GE DC  |"D"DF D:|
|:z|"D"zd2c |B2Az|FA2F |"A7"G2E2|ze2d |c2Bz|AA2A |"G"B2"A"A2|
"D"zd2c |B2Az|FA2F |"A7"G2E2|ze2d |c2Bz|AB2 c |"D"d2z:|
% abcbook-tune_id 6342d53a38bf7196aef95f55


% abcbook-boost 0
% abcbook-tablature 
% abcbook-transpose 
% abcbook-lastupdated 1665324385183
% abcbook-soundfonts 
% abcbook-repeats 1
% NFF Book 2018

